public/icons/dark/android.darkmode.svg

<svg width="192" height="192" viewBox="0 0 192 192" fill="none" xmlns="http://www.w3.org/2000/svg">
<g clip-path="url(#clip0_498_5836)">
<path d="M26.9197 135.91C21.3997 135.91 15.7197 140.33 15.7197 148.08C15.7197 155.16 20.7097 160.16 26.9197 160.16C32.0397 160.16 34.3297 156.72 34.3297 156.72V158.22C34.3297 158.93 34.9997 159.72 35.8297 159.72H39.5297V136.44H34.3297V139.4C34.3297 139.4 32.0297 135.91 26.9197 135.91ZM27.8497 140.67C32.3997 140.67 34.7797 144.67 34.7797 148.08C34.7797 151.88 31.9497 155.49 27.8597 155.49C24.4397 155.49 21.0197 152.72 21.0197 148.04C21.0197 143.8 23.9697 140.68 27.8497 140.68V140.67Z" fill="white"/>
<path d="M46.75 159.72C45.95 159.72 45.25 159.15 45.25 158.22V136.44H50.45V139.32C51.63 137.55 53.93 135.9 57.47 135.9C63.25 135.9 66.32 140.51 66.32 144.81V159.71H62.7C61.75 159.71 61.11 158.92 61.11 158.12V145.95C61.11 143.56 59.65 140.66 56.26 140.66C52.61 140.66 50.44 144.11 50.44 147.36V159.7H46.74L46.75 159.72Z" fill="white"/>
<path d="M81.49 135.91C75.97 135.91 70.29 140.33 70.29 148.08C70.29 155.16 75.28 160.16 81.49 160.16C86.61 160.16 88.9 156.72 88.9 156.72V158.22C88.9 158.93 89.57 159.72 90.4 159.72H94.1V124.8H88.9V139.39C88.9 139.39 86.6 135.91 81.49 135.91ZM82.42 140.67C86.97 140.67 89.35 144.67 89.35 148.08C89.35 151.88 86.52 155.49 82.43 155.49C79.01 155.49 75.59 152.72 75.59 148.04C75.59 143.8 78.54 140.68 82.42 140.68V140.67Z" fill="white"/>
<path d="M101.33 159.721C100.53 159.721 99.8301 159.151 99.8301 158.221V136.441H105.03V140.321C105.92 138.151 107.86 136.181 111.29 136.181C112.25 136.181 113.14 136.351 113.14 136.351V141.731C113.14 141.731 112.02 141.291 110.67 141.291C107.02 141.291 105.03 144.741 105.03 147.991V159.721H101.33Z" fill="white"/>
<path d="M144.71 159.72C143.91 159.72 143.21 159.15 143.21 158.22V136.44H148.41V159.72H144.71Z" fill="white"/>
<path d="M163.67 135.91C158.15 135.91 152.47 140.33 152.47 148.08C152.47 155.16 157.46 160.16 163.67 160.16C168.79 160.16 171.08 156.72 171.08 156.72V158.22C171.08 158.93 171.75 159.72 172.58 159.72H176.28V124.8H171.08V139.39C171.08 139.39 168.78 135.91 163.67 135.91ZM164.6 140.67C169.15 140.67 171.53 144.67 171.53 148.08C171.53 151.88 168.7 155.49 164.61 155.49C161.19 155.49 157.77 152.72 157.77 148.04C157.77 143.8 160.72 140.68 164.6 140.68V140.67Z" fill="white"/>
<path d="M145.78 131.41C147.68 131.41 149.22 129.87 149.22 127.97C149.22 126.07 147.68 124.53 145.78 124.53C143.88 124.53 142.34 126.07 142.34 127.97C142.34 129.87 143.88 131.41 145.78 131.41Z" fill="white"/>
<path d="M126.869 135.9C121.089 135.9 114.729 140.22 114.729 148.04C114.729 155.16 120.139 160.16 126.849 160.16C135.119 160.16 139.159 153.51 139.159 148.08C139.159 141.42 133.959 135.9 126.859 135.9H126.869ZM126.889 140.76C130.889 140.76 133.869 143.98 133.869 148.05C133.869 152.12 130.699 155.38 126.899 155.38C123.369 155.38 119.939 152.51 119.939 148.11C119.939 143.65 123.199 140.75 126.889 140.75V140.76Z" fill="white"/>
<path d="M135.19 47.1101L148.5 24.0501C149.25 22.7601 148.8 21.1201 147.52 20.3601C146.25 19.6101 144.59 20.0501 143.85 21.3401L130.36 44.6901C120.07 39.9901 108.49 37.3701 96.03 37.3701C83.57 37.3701 71.99 39.9901 61.7 44.6901L48.21 21.3401C47.46 20.0501 45.82 19.6101 44.52 20.3601C43.23 21.1101 42.79 22.7501 43.54 24.0501L56.85 47.1101C33.91 59.5501 18.36 82.7801 15.79 109.98H176.27C173.7 82.7801 158.15 59.5501 135.18 47.1101H135.19ZM59.2 87.4501C55.48 87.4501 52.47 84.4301 52.47 80.7201C52.47 77.0101 55.49 73.9901 59.2 73.9901C62.91 73.9901 65.93 77.0101 65.93 80.7201C65.95 84.4201 62.92 87.4501 59.2 87.4501ZM132.86 87.4501C129.14 87.4501 126.13 84.4301 126.13 80.7201C126.13 77.0101 129.15 73.9901 132.86 73.9901C136.57 73.9901 139.59 77.0101 139.59 80.7201C139.61 84.4201 136.58 87.4501 132.86 87.4501Z" fill="#32DE84"/>
</g>
<defs>
<clipPath id="clip0_498_5836">
<rect width="192" height="192" fill="white"/>
</clipPath>
</defs>
</svg>

<?xml version="1.0" encoding="UTF-8"?><svg id="Capa_2" xmlns="http://www.w3.org/2000/svg" viewBox="0 0 192 192"><defs><style>.cls-1{fill:none;}.cls-2{fill:#32de84;}</style></defs><g id="outline"><rect class="cls-1" width="192" height="192"/></g><g id="icons"><g id="layer1"><g id="g80302"><path id="path825" d="M26.92,135.91c-5.52,0-11.2,4.42-11.2,12.17,0,7.08,4.99,12.08,11.2,12.08,5.12,0,7.41-3.44,7.41-3.44v1.5c0,.71,.67,1.5,1.5,1.5h3.7v-23.28h-5.2v2.96s-2.3-3.49-7.41-3.49h0Zm.93,4.76c4.55,0,6.93,4,6.93,7.41,0,3.8-2.83,7.41-6.92,7.41-3.42,0-6.84-2.77-6.84-7.45,0-4.24,2.95-7.36,6.83-7.36Z"/><path id="path829" d="M46.75,159.72c-.8,0-1.5-.57-1.5-1.5v-21.78h5.2v2.88c1.18-1.77,3.48-3.42,7.02-3.42,5.78,0,8.85,4.61,8.85,8.91v14.9h-3.62c-.95,0-1.59-.79-1.59-1.59v-12.17c0-2.39-1.46-5.29-4.85-5.29-3.65,0-5.82,3.45-5.82,6.7v12.34h-3.7Z"/><path id="path833" d="M81.49,135.91c-5.52,0-11.2,4.42-11.2,12.17,0,7.08,4.99,12.08,11.2,12.08,5.12,0,7.41-3.44,7.41-3.44v1.5c0,.71,.67,1.5,1.5,1.5h3.7v-34.92h-5.2v14.59s-2.3-3.48-7.41-3.48h0Zm.93,4.76c4.55,0,6.93,4,6.93,7.41,0,3.8-2.83,7.41-6.92,7.41-3.42,0-6.84-2.77-6.84-7.45,0-4.24,2.95-7.36,6.83-7.36Z"/><path id="path835" d="M101.33,159.72c-.8,0-1.5-.57-1.5-1.5v-21.78h5.2v3.88c.89-2.17,2.83-4.14,6.26-4.14,.96,0,1.85,.17,1.85,.17v5.38s-1.12-.44-2.47-.44c-3.65,0-5.64,3.45-5.64,6.7v11.73h-3.7Z"/><path id="path837" d="M144.71,159.72c-.8,0-1.5-.57-1.5-1.5v-21.78h5.2v23.28h-3.7Z"/><path id="path839" d="M163.67,135.91c-5.52,0-11.2,4.42-11.2,12.17,0,7.08,4.99,12.08,11.2,12.08,5.12,0,7.41-3.44,7.41-3.44v1.5c0,.71,.67,1.5,1.5,1.5h3.7v-34.92h-5.2v14.59s-2.3-3.48-7.41-3.48h0Zm.93,4.76c4.55,0,6.93,4,6.93,7.41,0,3.8-2.83,7.41-6.92,7.41-3.42,0-6.84-2.77-6.84-7.45,0-4.24,2.95-7.36,6.83-7.36Z"/><circle id="path841" cx="145.78" cy="127.97" r="3.44"/><path id="path843" d="M126.87,135.9c-5.78,0-12.14,4.32-12.14,12.14,0,7.12,5.41,12.12,12.12,12.12,8.27,0,12.31-6.65,12.31-12.08,0-6.66-5.2-12.18-12.3-12.18h0Zm.02,4.86c4,0,6.98,3.22,6.98,7.29s-3.17,7.33-6.97,7.33c-3.53,0-6.96-2.87-6.96-7.27,0-4.46,3.26-7.36,6.95-7.36h0Z"/></g><path id="path80319" class="cls-2" d="M135.19,47.11l13.31-23.06c.75-1.29,.3-2.93-.98-3.69-1.27-.75-2.93-.31-3.67,.98l-13.49,23.35c-10.29-4.7-21.87-7.32-34.33-7.32s-24.04,2.62-34.33,7.32l-13.49-23.35c-.75-1.29-2.39-1.73-3.69-.98-1.29,.75-1.73,2.39-.98,3.69l13.31,23.06c-22.94,12.44-38.49,35.67-41.06,62.87H176.27c-2.57-27.2-18.12-50.43-41.09-62.87ZM59.2,87.45c-3.72,0-6.73-3.02-6.73-6.73s3.02-6.73,6.73-6.73,6.73,3.02,6.73,6.73c.02,3.7-3.01,6.73-6.73,6.73Zm73.66,0c-3.72,0-6.73-3.02-6.73-6.73s3.02-6.73,6.73-6.73,6.73,3.02,6.73,6.73c.02,3.7-3.01,6.73-6.73,6.73Z"/></g></g></svg>
